icons/arrow-block-downleft.svg

<svg width="24" height="24" viewBox="0 0 24 24" fill="none" xmlns="http://www.w3.org/2000/svg">
<path fill-rule="evenodd" clip-rule="evenodd" d="M15.6488 5.82775L10.8488 10.6278L8.46648 8.24545L5.85149 18.1644L15.7704 15.5494L13.3881 13.1671L18.1881 8.36709L15.6488 5.82775ZM15.6488 4.26709C15.9476 4.26709 16.3066 4.36428 16.5791 4.63676L19.3791 7.43676C19.6516 7.70924 19.7488 8.06823 19.7488 8.36709C19.7488 8.66595 19.6516 9.02494 19.3791 9.29742L15.5094 13.1671L17.3791 15.0368C17.6541 15.3118 17.6839 15.6831 17.6555 15.9101C17.6224 16.175 17.4749 16.5426 17.0842 16.7379L17.0149 16.7726L5.93071 19.6948C5.44384 19.8165 4.96785 19.6332 4.667 19.3575C4.3655 19.0811 4.11062 18.5709 4.33914 18.0168L7.24332 7.00098L7.27797 6.93168C7.43191 6.62379 7.71085 6.41132 8.05522 6.36213C8.35097 6.31988 8.61069 6.40951 8.7842 6.49627L8.89306 6.5507L10.8488 8.50643L14.7185 4.63676C14.9909 4.36428 15.3499 4.26709 15.6488 4.26709Z" fill="black"/>
</svg>

<svg xmlns="http://www.w3.org/2000/svg" fill="none" viewBox="0 0 24 24">
  <path fill="#000" fill-rule="evenodd" d="m15.649 5.828-4.8 4.8-2.383-2.383-2.615 9.92 9.92-2.616-2.383-2.382 4.8-4.8-2.54-2.54Zm0-1.56c.299 0 .658.096.93.369l2.8 2.8c.273.272.37.631.37.93 0 .299-.097.658-.37.93l-3.87 3.87 1.87 1.87c.275.275.305.646.276.873-.033.265-.18.633-.57.828l-.07.035L5.93 19.695c-.487.122-.963-.062-1.264-.337-.301-.277-.556-.787-.328-1.341L7.243 7l.035-.07c.154-.307.433-.52.777-.569.296-.042.556.048.73.134l.108.055 1.956 1.955 3.87-3.87c.272-.272.63-.369.93-.369Z" clip-rule="evenodd"/>
</svg>
